!!!OTL: Die Einzige.
!!!OTL-incipit: VON ALLEN SCHOENEN KINDERN IN DER WELT
!!!ARE: Europa, Mitteleuropa, Deutschland, Niederrhein
!!!SCT: Z1145
!!!TXL: @@DE
!!!YEM: Copyright 1995, estate of Helmut Schaffrath.
**kern	**text
*ICvox	*
*M2/4	*
*k[f#c#]	*
*D:	*
!LO:TX:a:t=Vom Niederrhein.	!
{8a	Von
=1	=1
4dd	al-
4a	-len
=2	=2
(4b/	ſchö-
8a)	.
8g	-nen
=3	=3
8f#	Kin-
8g	-dern
8a	in
8f#	der
=4	=4
4d	Welt,
8r}	.
{8dd	mir
=5	=5
4dd	ei-
8cc#L	-nes
8ddJ	.
=6	=6
8.ee	doch
16dd	am
8cc#	be-
8b	-ſten
=7	=7
4a	wohl-
4e	-ge-
=8	=8
4a	-fällt;
8r}	.
{8a	es
=9	=9
(8f#L	hat
8aJ)	.
8a	ein
8a	roth
=10	=10
4a	Münd-
8dd	-lein
8dd	und
=11	=11
8b	dun-
8b	-kel-
8ee	-brau-
8dd	-nes
=12	=12
4.cc#}	Haar,
{8b	drum
=13	=13
8a	will
8b/	ich
8a	es
8g	auch
=14	=14
4.f#	lie-
8dd	-ben
=15	=15
4ee	ganʒ
(8ddL	und
8cc#J)	.
=16	=16
4dd	gar!
8r}	.
==	==
!!!AGN: Liebes - Lied
!!!ONB: ESAC (Essen Associative Code) Database: ZUCCAL
!!!AMT: simple duple
!!!AIN: vox
!!!EED: Helmut Schaffrath
!!!EEV: 1.0
!!!GTL: V. Lieder der Minne.
!!!URL-scan: https://www.digitale-sammlungen.de/de/view/bsb11160573?page=322
!!!ENC: Anna Maria Matuszewska
!!!EEV: 2025/02/05
*-	*-
